X: 4
T:1815
M:2/4
L:1/16
Q:96
C:M.P.
R:scottish
K:C
|:c2 BA|G2G2 fedf|e2c2 c2BA|1 G2G2 defd|e2c2:|2 G2G2 gfed|c4|
|:cdef|g2g2 fedc|A4 ABcd|1 e2e2 fedf|e2c2:|2 efed c2e2|c4||
